dist/svgs/lock.svg

<!-- Generated by IcoMoon.io -->
<svg version="1.1" xmlns="http://www.w3.org/2000/svg" width="24" height="24" viewBox="0 0 24 24">
<title>lock</title>
<path d="M20 8h-2v-2c0-3.4-2.6-6-6-6s-6 2.6-6 6v2h-2c-0.6 0-1 0.4-1 1v14c0 0.6 0.4 1 1 1h16c0.6 0 1-0.4 1-1v-14c0-0.6-0.4-1-1-1zM8 6c0-2.2 1.8-4 4-4s4 1.8 4 4v2h-8v-2zM19 22h-14v-12h14v12z"></path>
<path d="M12 12c-1.7 0-3 1.3-3 3 0 1.3 0.8 2.4 2 2.8v1.2c0 0.6 0.4 1 1 1s1-0.4 1-1v-1.2c1.2-0.4 2-1.5 2-2.8 0-1.7-1.3-3-3-3zM12 16c-0.6 0-1-0.4-1-1s0.4-1 1-1 1 0.4 1 1-0.4 1-1 1z"></path>
</svg>

<svg xmlns="http://www.w3.org/2000/svg" width="24" height="24" viewBox="0 0 24 24"><title>lock</title><path d="M20 8h-2V6c0-3.4-2.6-6-6-6S6 2.6 6 6v2H4c-.6 0-1 .4-1 1v14c0 .6.4 1 1 1h16c.6 0 1-.4 1-1V9c0-.6-.4-1-1-1zM8 6c0-2.2 1.8-4 4-4s4 1.8 4 4v2H8V6zm11 16H5V10h14v12z"/><path d="M12 12c-1.7 0-3 1.3-3 3 0 1.3.8 2.4 2 2.8V19c0 .6.4 1 1 1s1-.4 1-1v-1.2c1.2-.4 2-1.5 2-2.8 0-1.7-1.3-3-3-3zm0 4c-.6 0-1-.4-1-1s.4-1 1-1 1 .4 1 1-.4 1-1 1z"/></svg>
